X:1
T:Putney, 87.87.47
T:Putney, 87.87.47
T:From Carmina Sacra, by Lowell Mason, 1841
T:Public Domain Courtesy of the Cyber Hymnal™
C:From Carmina Sacra, by Lowell Mason, 1841
Z:Public Domain
Z:Courtesy of the Cyber Hymnal™
%%score ( 1 2 ) 3
L:1/8
Q:1/4=105
M:3/4
K:F
V:1 treble 
V:2 treble 
V:3 bass 
V:1
|: [FA][Ac] | [Ac]3 [GB] [EG][GB] | [GB]2 [FA]2 [Fd][Fc] | [GB]3 [EG] [FA]F | [Ec]4 :| z2 | %6
!p! [DF]4 [DF]2 | [EG]2 [EG]2 z2 |!mf! [FA]4 [Fc]2 | (d3 A) (BG) | [CF]4 [CE]2 | !fermata![CF]4 |] %12
V:2
|: x2 | x6 | x6 | x5 F | x4 :| x2 | x6 | x6 | x6 | F4 D2 | x6 | x4 |] %12
V:3
|: [C,F,][C,F,] | [C,C]3 [C,C] [C,C][C,C] | [F,C]2 [F,C]2 [A,B,][A,B,] | %3
 [D,G,]3 [C,C] [C,F,][D,F,] | [C,G,]4 :| z2 | [D,F,]4 [D,A,]2 | [C,C]2 [C,C]2 z2 | [F,C]4 [F,A,]2 | %9
 [B,,B,]4 [B,,B,]2 | [C,A,]4 [C,G,]2 | !fermata![F,A,]4 |] %12

